X:1
T:The Well-Tempered Clavier Part II Praeludium XXI
T:BWV 890
T:J. S. Bach
%%score { ( 1 2 4 5 ) | ( 3 6 ) }
L:1/8
Q:1/4=96
M:12/16
K:Bb
V:1 treble nm="Harp"
V:2 treble 
V:4 treble 
V:5 treble 
V:3 bass 
V:6 bass 
V:1
"^Andante" z/ b/a/ g/f/e/ d3/2d/4e/4f/4e/4d/4e/4 | fd/ eg/ a/4g/4f/g/ f3/2- | fB/ Ae/ d3/2c3/2 | %3
 B/c/d/ e/f/g/ c3- | c/A/B/ c/d/e/ f3/2e3/2 | d3/2- dc/ B3- | %6
 B/c/G/ A3/2- A3/2 A/4 B/4c/4B/4A/4B/4 | c/f/=e/ d/c/B/ B/4A/4G/A/ G3/2 | %8
 C/=E/G/ B/A/B/ C/E/F/ A/G/A/ | B,/D/=E/ G/F/G/ B,/A,/C/ F/A/c/ | e/d/e/ F/A/c/ d/c/d/ F/A/B/ | %11
 c/B/c/ E/G/A/ A/B/F/ D3/2- | D/C/D/ A,/D/B,/ G,/D/B,/ G,/D/B/ | %13
 C/B,/C/ G,/C/A,/ _G,/C/A,/ G,/C/A/ | B,/A,/B,/ D3/2 G3/2[K:bass] C,3/2 | %15
 F,,3/2[K:treble] C3/2 F3/2[K:bass] B,,3/2 | E,,3/2[K:treble] E3/2- E/c/B/ A/G/F/ | %17
 ED/ B3/2- B/d/c/ B/A/G/ | F/G/A/ B/c/d/- d3/2 cB/ | A/B/c/ d/=e/f/- f3/2 ed/ | %20
 c/f/=e/ d/c/B/ A/G/A/ B/A/G/ | F/G/A/ B/c/d/ dG/ A/B/c/ | cF/ G/A/B/ B z/ z3/2 | %23
 z/ F/G/ A/B/c/ d/B/c/ d/=e/f/ | g3- gc/ f_e/ | d3- dG/ cB/ | A3/2- A/=B/c/ d/F/G/ _A/G/F/ | %27
 =E/C/=B,/ C/D/E/ F/C/B,/ C/E/F/ | G/C/=B,/ C/F/G/ _A/F/G/ A/B/c/ | %29
 _d/B/c/ d/e/f/ _g/_a/b/ a/g/f/ | =e/g/B/ _d/c/B/ c/f/A/ B/c/=d/ | c/B/A/ G/f/=e/ f/c/A/ F3/2 | %32
 z/ b/a/ g/f/e/ d3/2d/4e/4f/4e/4d/4e/4 | fd/ eg/ a/4g/4f/g/ f3/2- | fB/ Ae/ d3/2c3/2 | %35
 B/c/d/ e/f/g/ c3- | c/A/B/ c/d/e/ f3/2e3/2 | d3/2- dc/ B3- | %38
 B/c/G/ A3/2- A3/2 A/4 B/4c/4B/4A/4B/4 | c/f/=e/ d/c/B/ B/4A/4G/A/ G3/2 | %40
 C/=E/G/ B/A/B/ C/E/F/ A/G/A/ | B,/D/=E/ G/F/G/ B,/A,/C/ F/A/c/ | e/d/e/ F/A/c/ d/c/d/ F/A/B/ | %43
 c/B/c/ E/G/A/ A/B/F/ D3/2- | D/C/D/ A,/D/B,/ G,/D/B,/ G,/D/B/ | %45
 C/B,/C/ G,/C/A,/ _G,/C/A,/ G,/C/A/ | B,/A,/B,/ D3/2 G3/2 C,3/2 | F,,3/2 C3/2 F3/2 B,,3/2 | %48
 E,,3/2 E3/2- E/c/B/ A/G/F/ | ED/ B3/2- B/d/c/ B/A/G/ | F/G/A/ B/c/d/- d3/2 cB/ | %51
 A/B/c/ d/=e/f/- f3/2 ed/ | c/f/=e/ d/c/B/ A/G/A/ B/A/G/ | F/G/A/ B/c/d/ dG/ A/B/c/ | %54
 cF/ G/A/B/ B z/ z3/2 | z/ F/G/ A/B/c/ d/B/c/ d/=e/f/ | g3- gc/ f_e/ | d3- dG/ cB/ | %58
 A3/2- A/=B/c/ d/F/G/ _A/G/F/ | =E/C/=B,/ C/D/E/ F/C/B,/ C/E/F/ | G/C/=B,/ C/F/G/ _A/F/G/ A/B/c/ | %61
 _d/B/c/ d/e/f/ _g/_a/b/ a/g/f/ | =e/g/B/ _d/c/B/ c/f/A/ B/c/=d/ | c/B/A/ G/f/=e/ f/c/A/ F3/2 | %64
 A/F/=E/ F/G/A/ B/F/E/ F/A/B/ | c/F/=E/ F/B/c/ d3/2- dc/ | =B/G/_G/ =G/A/B/ c/G/_G/ =G/B/c/ | %67
 d/G/_G/ =G/c/d/ e/c/G/- G/g/f/ | e/d/c/ B/e/c/ _A/e/c/ F/c/e/ | d/c/B/ _A/d/B/ G/_d/B/ E/B/d/ | %70
 c/=B/c/ e3/2 _a3/2[K:bass] F,3/2 | G,3/2[K:treble] d3/2 g3/2[K:bass] =E,3/2 | %72
 F,3/2[K:treble] f3/2- f/G/A/ =B/ c/d/ | e/d/c/ B/A/G/ _G/d/=e/ _g/=g/a/ | gG/ c3/2- c/c/A/ dc/ | %75
 B3/2e3/2- e/A/B/ c/d/e/ | d/g/f/ e/d/c/ B/A/B/ c/_g/a/ | dB/ c/d/e/ eA/ B/c/d/ | %78
 dG/ A/B/c/ c/ ^F- F/G/A/ | B/e/d/ c/B/A/ G3/2 z3/2 | z/ b/a/ g/f/e/ d3/2e3/2 | fd/ eg/ c3/2f3/2- | %82
 f/e/d/ e2 d/c/ d3/2- | d/e/f/ g/a/b/ B3/2A3/2 | F/A/c/ e/d/e/ F/A/B/ d/c/d/ | %85
 E/G/A/ c/B/c/ E/D/F/ B/d/e/ | f/e/f/ G/=B/d/ e/d/e/ G/B/c/ | d/c/d/ F/_A/=B/ B/c/G/ z3/2 | %88
 z3 =e3- | e/=A/_d/ _e/f/=d/ e3- | e3/2d3/2 g3- | g/c/=e/f/g/e/ f3- | f3/2e3/2 d3- | %93
 d3- d/e/d/ c/d/B/ | c3- c/_d/c/ B/c/A/ | B/c/_d/- d/c/B/- B/A/G/ A z/ | %96
 z/ A,/B,/ C/D/E/ F3/2E3/2 | DG/ _Gc/ B3/2_A3/2- | A/G/=A/ B/c/d/ e3/2d3/2 | c3- c3- | %100
 c/A/B/- B/A/e/ d3- | d3/2_a3/2 g3/2f3/2 | e3/2=e3/2 f=d/ eg/ | c3- cB/ Ae/ | d3- de/ d_a/ | %105
 g3/2f3/2 e3/2d3/2- | d/d/c/- c/A/B/ B/-B/A/- A/F/G/ | !fermata!F3/2 z3/2 z/ F,/G,/ A,/B,/C/ | %108
 D/E/D/ C/B,/A,/ B,/_A/G/ F/E/D/ | E/B,/C/ D/E/F/ G/E/F/ G/A/B/ | c/d/c/ B/A/G/ A/g/f/ e/d/c/ | %111
 d/A/B/ c/d/e/ f/d/e/ f/g/_a/ | b/c'/b/ _a/g/f/ g/a/g/ f/e/d/ | e6- | %114
 e/F/=E/ F/G/A/ B/F/E/ F/A/B/ | c/F/=E/ F/B/c/ _d/B/c/ d/e/f/ | _g/e/f/ g/_a/b/ _c'/b/a/ g/f/e/ | %117
 a/c'/e/ _g/f/e/ f/b/d/ e/f/=g/ | f/e/d/ c/b/a/ b/f/d/ B3/2 | A/F/=E/ F/G/A/ B/F/E/ F/A/B/ | %120
 c/F/=E/ F/B/c/ d3/2- dc/ | =B/G/_G/ =G/A/B/ c/G/_G/ =G/B/c/ | d/G/_G/ =G/c/d/ e/c/G/- G/g/f/ | %123
 e/d/c/ B/e/c/ _A/e/c/ F/c/e/ | d/c/B/ _A/d/B/ G/_d/B/ E/B/d/ | c/=B/c/ e3/2 _a3/2 F,3/2 | %126
 G,3/2 d3/2 g3/2 =E,3/2 | F,3/2 f3/2- f/G/A/ =B/ c/d/ | e/d/c/ B/A/G/ _G/d/=e/ _g/=g/a/ | %129
 gG/ c3/2- c/c/A/ dc/ | B3/2e3/2- e/A/B/ c/d/e/ | d/g/f/ e/d/c/ B/A/B/ c/_g/a/ | %132
 dB/ c/d/e/ eA/ B/c/d/ | dG/ A/B/c/ c/ ^F- F/G/A/ | B/e/d/ c/B/A/ G3/2 z3/2 | %135
 z/ b/a/ g/f/e/ d3/2e3/2 | fd/ eg/ c3/2f3/2- | f/e/d/ e2 d/c/ d3/2- | d/e/f/ g/a/b/ B3/2A3/2 | %139
 F/A/c/ e/d/e/ F/A/B/ d/c/d/ | E/G/A/ c/B/c/ E/D/F/ B/d/e/ | f/e/f/ G/=B/d/ e/d/e/ G/B/c/ | %142
 d/c/d/ F/_A/=B/ B/c/G/ z3/2 | z3 =e3- | e/=A/_d/ _e/f/=d/ e3- | e3/2d3/2 g3- | g/c/=e/f/g/e/ f3- | %147
 f3/2e3/2 d3- | d3- d/e/d/ c/d/B/ | c3- c/_d/c/ B/c/A/ | B/c/_d/- d/c/B/- B/A/G/ A z/ | %151
 z/ A,/B,/ C/D/E/ F3/2E3/2 | DG/ _Gc/ B3/2_A3/2- | A/G/=A/ B/c/d/ e3/2d3/2 | c3- c3- | %155
 c/A/B/- B/A/e/ d3- | d3/2_a3/2 g3/2f3/2 | e3/2=e3/2 f=d/ eg/ | c3- cB/ Ae/ | d3- de/ d_a/ | %160
 g3/2f3/2 e3/2d3/2- | d/d/c/- c/A/B/ B/-B/A/- A/F/G/ | !fermata!F3/2 z3/2 z/ F,/G,/ A,/B,/C/ | %163
 D/E/D/ C/B,/A,/ B,/_A/G/ F/E/D/ | E/B,/C/ D/E/F/ G/E/F/ G/A/B/ | c/d/c/ B/A/G/ A/g/f/ e/d/c/ | %166
 d/A/B/ c/d/e/ f/d/e/ f/g/_a/ | b/c'/b/ _a/g/f/ g/a/g/ f/e/d/ | e6- | %169
 e/F/=E/ F/G/A/ B/F/E/ F/A/B/ | c/F/=E/ F/B/c/ _d/B/c/ d/e/f/ | _g/e/f/ g/_a/b/ _c'/b/a/ g/f/e/ | %172
 a/c'/e/ _g/f/e/ f/b/d/ e/f/=g/ | f/e/d/ c/b/a/ b/f/d/ !fermata!B3/2 |] %174
V:2
 z3 z/ B/A/[I:staff +1] G/F/E/ |[I:staff -1] DF/ Be/ e3/2- e/d/c/ | d3/2c3/2 B/D/E/ F/G/A/ | %3
 B3 B/A/G/ A3/2- | A/ z/ z/ z3/2 z/ F/G/ A/B/c/ | dG/ ^FA/- A/D/=F/ G3/2- | G3/2- G/C/E/ F3- | %7
 F3- F3/2=E3/2 | x6 | x6 | x6 | x6 | x6 | x6 | x9/2[K:bass] x3/2 | x3/2[K:treble] x3[K:bass] x3/2 | %16
 x3/2[K:treble] x9/2 | z/ C/B,/[I:staff +1] A,/G,/F,/ =E,G,/ C3/2- | C3/2 F,B,/[I:staff -1] G3- | %19
 G3/2[I:staff +1] FD/[I:staff -1] B3 | c z/ z3/2 z/[I:staff +1] F/=E/ D/C/B,/ | %21
 A,[I:staff -1] z/ F3/2- F/ =E/[I:staff +1]D/ C/B,/A,/ |[I:staff -1] D3- D/C/D/ =E/F/G/ | %23
 A z/ z3/2 z3 | z/ f/=e/ d/c/B/ A3- | A/c/B/ A/G/F/ =E3 | %26
 z/ z/ C/ F z/ z/ z/[I:staff +1] D,/ F,_A,/ | G,3/2- G,[I:staff -1] z/ z3 | x6 | x6 | x6 | x6 | %32
 z3 z/ B/A/[I:staff +1] G/F/E/ |[I:staff -1] DF/ Be/ e3/2- e/d/c/ | d3/2c3/2 B/D/E/ F/G/A/ | %35
 B3 B/A/G/ A3/2- | A/ z/ z/ z3/2 z/ F/G/ A/B/c/ | dG/ ^FA/- A/D/=F/ G3/2- | G3/2- G/C/E/ F3- | %39
 F3- F3/2=E3/2 | x6 | x6 | x6 | x6 | x6 | x6 | x6 | x6 | x6 | %49
 z/ C/B,/[I:staff +1] A,/G,/F,/ =E,G,/ C3/2- | C3/2 F,B,/[I:staff -1] G3- | %51
 G3/2[I:staff +1] FD/[I:staff -1] B3 | c z/ z3/2 z/[I:staff +1] F/=E/ D/C/B,/ | %53
 A,[I:staff -1] z/ F3/2- F/ =E/[I:staff +1]D/ C/B,/A,/ |[I:staff -1] D3- D/C/D/ =E/F/G/ | %55
 A z/ z3/2 z3 | z/ f/=e/ d/c/B/ A3- | A/c/B/ A/G/F/ =E3 | %58
 z/ z/ C/ F z/ z/ z/[I:staff +1] D,/ F,_A,/ | G,3/2- G,[I:staff -1] z/ z3 | x6 | x6 | x6 | x6 | %64
 x6 | z3 z3/2 D3/2- | D/ z/ z/ z3/2 z3 | x6 | x6 | x6 | x9/2[K:bass] x3/2 | %71
 x3/2[K:treble] x3[K:bass] x3/2 | x3/2[K:treble] x9/2 | x6 | z3/2 z/ z/ E/ D3- | %75
 D/d/c/ B/A/G/ F3/2- F z/ | z3 z/[I:staff +1] G/F/ E/D/C/ | %77
[I:staff -1] DF/ G3/2- G/F/[I:staff +1]E/ D/C/B,/ |[I:staff -1] E3- E/E/D/[I:staff +1] C/B,/A,/ | %79
[I:staff -1] z/ c/B/ A/G/^F/ G3/2 z3/2 | z3 z/ B/_A/ G/[I:staff +1]F/E/ | %81
 D[I:staff -1]F/ B3/2- BA/- A_A/ | G3/2- G/c/A/ F3/2- F/G/A/ | B3/2- B/c/d/ d/c/d/ c3/2 | x6 | x6 | %86
 x6 | z3 z3/2 E3/2- | E/e/d/c/B/_A/- A3- | A3/2G3/2 F3- | F/F/A/ B/c/A/ B3- | B3/2_A3/2 G3- | %92
 G/G/=B/ c/d/B/ c3- | c/B/A/ G/A/^F/ G3- | G/A/G/ F/_G/E/ F3- | F3/2=E3/2 F3/2- F z/ | %96
 z3 z/[I:staff +1] F,/G,/[I:staff -1] A,/B,/C/ | D3- D/A/=G/ F/E/D/ | E z/ z3/2 z/ E/F/ G/A/B/ | %99
 cF/ =EB/ A/B/A/ G/F/_E/ | F>E z/ z/ D/G/ G/^F/c/ z/ | B3/2=B3/2 cA/ Bd/ | G3/2_d3/2 c3/2B3/2- | %103
 BA/ Gc/ F3- | FG/ ^Fc/ B3- | B3/2_A3/2G3/2F3/2 | [EG]3/2[_DF]3/2 [CE]3/2[B,D]3/2 | %107
[I:staff +1] [A,C]3/2[I:staff -1] z3/2 z3 | x6 | x6 | x6 | x6 | x6 | x6 | x6 | x6 | x6 | x6 | x6 | %119
 x6 | z3 z3/2 D3/2- | D/ z/ z/ z3/2 z3 | x6 | x6 | x6 | x6 | x6 | x6 | x6 | z3/2 z/ z/ E/ D3- | %130
 D/d/c/ B/A/G/ F3/2- F z/ | z3 z/[I:staff +1] G/F/ E/D/C/ | %132
[I:staff -1] DF/ G3/2- G/F/[I:staff +1]E/ D/C/B,/ |[I:staff -1] E3- E/E/D/[I:staff +1] C/B,/A,/ | %134
[I:staff -1] z/ c/B/ A/G/^F/ G3/2 z3/2 | z3 z/ B/_A/ G/[I:staff +1]F/E/ | %136
 D[I:staff -1]F/ B3/2- BA/- A_A/ | G3/2- G/c/A/ F3/2- F/G/A/ | B3/2- B/c/d/ d/c/d/ c3/2 | x6 | x6 | %141
 x6 | z3 z3/2 E3/2- | E/e/d/c/B/_A/- A3- | A3/2G3/2 F3- | F/F/A/ B/c/A/ B3- | B3/2_A3/2 G3- | %147
 G/G/=B/ c/d/B/ c3- | c/B/A/ G/A/^F/ G3- | G/A/G/ F/_G/E/ F3- | F3/2=E3/2 F3/2- F z/ | %151
 z3 z/[I:staff +1] F,/G,/[I:staff -1] A,/B,/C/ | D3- D/A/=G/ F/E/D/ | E z/ z3/2 z/ E/F/ G/A/B/ | %154
 cF/ =EB/ A/B/A/ G/F/_E/ | F>E z/ z/ D/G/ G/^F/c/ z/ | B3/2=B3/2 cA/ Bd/ | G3/2_d3/2 c3/2B3/2- | %158
 BA/ Gc/ F3- | FG/ ^Fc/ B3- | B3/2_A3/2G3/2F3/2 | [EG]3/2[_DF]3/2 [CE]3/2[B,D]3/2 | %162
[I:staff +1] [A,C]3/2[I:staff -1] z3/2 z3 | x6 | x6 | x6 | x6 | x6 | x6 | x6 | x6 | x6 | x6 | x6 |] %174
V:3
 B,6- | B,/B,/_A,/ G,/F,/E,/ B,/=A,/B,/ B,,3/2- | B,,/D,/E,/ F,/G,/A,/ B,3/2A,3/2 | %3
 G,F,/ G,E,/ F,3/2- F,/A,/C/ | F3/2E3/2 D3/2C3/2 | B,/B,,/C,/ D,/=E,/^F,/ G,3/2- G,/B,/D,/ | %6
 =E,3/2F,3/2- F,/F,/E,/ D,/C,/B,,/ | A,,3/2B,,3/2 C,2 =E,/G,/ | %8
 B,/A,/B,/ C,/=E,/G,/ A,/G,/A,/ C,/E,/F,/ | G,/F,/G,/ C,/D,/=E,/ F,2 C,/A,,/ | %10
 F,,/A,,/C,/ E,/D,/E,/ F,,/A,,/B,,/ D,/C,/D,/ | E,,/G,,/A,,/ C,/B,,/C,/ E,,/D,,/F,,/ B,,/D,/F,/ | %12
 B,3/2[K:treble] F3/2 B3/2[K:bass] E,3/2 | A,,3/2[K:treble] E3/2 A3/2[K:bass] D,3/2 | %14
 G,,3/2 F,/B,/G,/ =E,/B,/G,/ E,/B,/G/ | _A,/G,/A,/ E,/A,/F,/ D,/A,/F,/ D,/A,/F/ | %16
 G,/F/E/ D/C/B,/ A,3/2 F,3/2 | B,,3 C,3 | D,3 =E,/G,/F,/ E,/D,/C,/ | F,3 G,/B,/A,/ G,/F,/=E,/ | %20
 A,/G,/A,/ B,/A,/G,/ F,3- | F,/F,/E,/ D,/C,/B,,/ C, z/ z3/2 | %22
 z/ D,/C,/ B,,/A,,/G,,/ C,B,,/ A,,G,,/ | F,,E,/ D,C,/ B,,A,/ G,F,/ | =E,G,/ E,C,/ F,/G/F/ E/D/C/ | %25
 B,3/2(8:6:8C/4B,/4A,/4B,/4C/4B,/4A,/4B,/4 C/D/C/ B,/A,/G,/ | F,/G,/F,/ E,/D,/C,/ =B,,3 | %27
 C,3/2- C,B,/ B,/4_A,/4B,/4A,/4G,/ A,/C/F,/ | =E,D,/ E,/G,/C,/ F,/_A,/_E,/ _D,/F,/C,/ | %29
 B,,/_D,/F,/ B,3/2- B,B,,/ B,=B,/ | C/C,/D,/ =E,/F,/G,/ A,/B,/C/ D/C/B,/ | %31
 A,/G,/F,/ CC,/ F,,/A,,/C,/ F,3/2 | B,6- | B,/B,/_A,/ G,/F,/E,/ B,/=A,/B,/ B,,3/2- | %34
 B,,/D,/E,/ F,/G,/A,/ B,3/2A,3/2 | G,F,/ G,E,/ F,3/2- F,/A,/C/ | F3/2E3/2 D3/2C3/2 | %37
 B,/B,,/C,/ D,/=E,/^F,/ G,3/2- G,/B,/D,/ | =E,3/2F,3/2- F,/F,/E,/ D,/C,/B,,/ | %39
 A,,3/2B,,3/2 C,2 =E,/G,/ | B,/A,/B,/ C,/=E,/G,/ A,/G,/A,/ C,/E,/F,/ | %41
 G,/F,/G,/ C,/D,/=E,/ F,2 C,/A,,/ | F,,/A,,/C,/ E,/D,/E,/ F,,/A,,/B,,/ D,/C,/D,/ | %43
 E,,/G,,/A,,/ C,/B,,/C,/ E,,/D,,/F,,/ B,,/D,/F,/ | B,3/2 F3/2 B3/2 E,3/2 | A,,3/2 E3/2 A3/2 D,3/2 | %46
 G,,3/2 F,/B,/G,/ =E,/B,/G,/ E,/B,/G/ | _A,/G,/A,/ E,/A,/F,/ D,/A,/F,/ D,/A,/F/ | %48
 G,/F/E/ D/C/B,/ A,3/2 F,3/2 | B,,3 C,3 | D,3 =E,/G,/F,/ E,/D,/C,/ | F,3 G,/B,/A,/ G,/F,/=E,/ | %52
 A,/G,/A,/ B,/A,/G,/ F,3- | F,/F,/E,/ D,/C,/B,,/ C, z/ z3/2 | %54
 z/ D,/C,/ B,,/A,,/G,,/ C,B,,/ A,,G,,/ | F,,E,/ D,C,/ B,,A,/ G,F,/ | =E,G,/ E,C,/ F,/G/F/ E/D/C/ | %57
 B,3/2(8:6:8C/4B,/4A,/4B,/4C/4B,/4A,/4B,/4 C/D/C/ B,/A,/G,/ | F,/G,/F,/ E,/D,/C,/ =B,,3 | %59
 C,3/2- C,B,/ B,/4_A,/4B,/4A,/4G,/ A,/C/F,/ | =E,D,/ E,/G,/C,/ F,/_A,/_E,/ _D,/F,/C,/ | %61
 B,,/_D,/F,/ B,3/2- B,B,,/ B,=B,/ | C/C,/D,/ =E,/F,/G,/ A,/B,/C/ D/C/B,/ | %63
 A,/G,/F,/ CC,/ F,,/A,,/C,/ F,3/2 | F,,/A,/G,/ A,/B,/C/ G,,/D/C/ B,/A,/G,/ | %65
 A,,/A,/B,/ A,/G,/F,/ B,,/D,/E,/ F,/G,/_A,/ | G,,/=B,/A,/ B,/C/D/ A,,/E/D/ C/B,/A,/ | %67
 =B,,/=B,/C/ B,/A,/G,/ C,/E,/F,/ G,/A,/B,/ | C3/2[K:treble] g3/2 c'3/2[K:bass] _A,3/2 | %69
 B,3/2[K:treble] f3/2 b3/2[K:bass] G,3/2 | _A,3/2[K:treble] G/c/_A/ F/c/A/ D/A/c/ | %71
 =B/A/G/ F/B/G/ =E/_B/G/ C/G/B/ | _A/G/F/ E/D/C/[K:bass] =B,3/2 G,3/2 | C3/2^C3/2 D3/2- D/=C/B,/ | %74
 E/D/C/ B,/A,/G,/ ^F,/A,/G,/ F,/=E,/D,/ | G,3/2- G,/A,/B,/ A,/C/B,/ A,/G,/F,/ | %76
 B,/A,/B,/ C/^F/A/ D/ z/ z/ z3/2 | z/ G,/F,/ E,/D,/C,/ F, z/ z3/2 | %78
 z/ E,/D,/ C,/B,,/A,,/ D,3/2E,3/2- | E,B,,/ C,D,/ G,3/2- G,/=F,/E,/ | D,3/2E,3/2 F,3/2G,3/2 | %81
 _A,/B,/A,/ G,/F,/E,/ F,/G,/F,/ E,/D,/C,/ | =B,, z/ C, z/ A,, z/ _B,,/B,/A,/ | %83
 G,/F,/E,/ D,/C,/B,,/ F,3/2- F,/A,/C/ | E/D/E/ F,/A,/C/ D/C/D/ F,/A,/B,/ | %85
 C/B,/C/ F,/G,/A,/ B,/F,/D,/ B,,/F,/_A,,/ | G,,/=B,,/D,/ F,/E,/F,/ G,,/B,,/C,/ E,/D,/E,/ | %87
 F,,/_A,,/=B,,/ D,/C,/D,/ F,,/E,,/G,,/ C,/E,/G,/ | C3/2- C/D/E/ D/B,/C/ D/E/F/ | %89
 G,3/2- G,/A,/B,/ A,/F,/G,/ A,/B,/C/ | D,3/2- D,/E,/F,/ =E,/C,/D,/ E,/F,/G,/ | %91
 _A,,3/2- A,,/B,,/C,/ =B,,/G,,/=A,,/ B,,/C,/D,/ | %92
 E,,3/2- E,,/F,,/G,,/ _G,,/D,,/=E,,/ G,,/=G,,/A,,/ | B,,/G,,/A,,/ B,,/C,/D,/ E,/C,/D,/ E,/F,/G,/ | %94
 A,,/F,,/G,,/ A,,/B,,/C,/ D,/B,,/C,/ D,/E,/F,/ | _G,,3/2=G,,3/2 F,,/A,,/B,,/ C,/D,/E,/ | %96
 F,3/2E,3/2 D,3/2C,3/2 | B,,/C/B,/ A,/G,/_G,/ =G,3/2B,3/2 | E,3/2D,3/2 C,3/2B,,3/2 | %99
 A,,/ B,/A,/ G,/F,/=E,/ F,/F,,/G,,/ A,,/B,,/C,/ | D,3/2C,3/2 B,,3/2A,,3/2 | %101
 G,,/ _A/G/ F/E/D/ E/F/E/ D/C/=B,/ | C/D/C/ B,/A,/G,/ A,/B,/A,/ G,/F,/=E,/ | %103
 F,/G,/F,/ E,/D,/C,/ D,/E,/D,/ C,/B,,/A,,/ | B,,/C,/B,,/ A,,/G,,/_G,,/ =G,,/A,,/G,,/ F,,/E,,/D,,/ | %105
 E,, z/ z3/2 z3 | E,3/2 z3/2 z3 | !fermata!E,3/2 z3/2 z/ E,/D,/ C,/B,,/A,,/ | %108
 B,,/F,,/G,,/ A,,/B,,/C,/ D,/B,,/C,/ D,/E,/F,/ | G,/_A,/G,/ F,/E,/D,/ E,/D/C/ B,/=A,/G,/ | %110
 A,/=E,/F,/ G,/A,/B,/ C/A,/B,/ C/D/E/ |[K:treble] F/G/F/ E/D/C/ D/c/B/ _A/G/F/ | %112
 G/_A/G/ F/E/D/ E/F/E/ D/C/=B,/ |[K:bass] C/D/C/ B,/A,/G,/ A,/A,,/B,,/ C,/D,/E,/ | %114
 F,,3/2- F,,E/ _DC/ D/F/B,/ | A,G,/ A,/C/F,/ B,/_D/_A,/ _G,/B,/F,/ | %116
 E,3/2- E,/B,,/_G,,/ E,,/G,,/B,,/ E,/F,/_G,/- | G,/F,/=G,/ A,/B,/C/ D/E/F/ G/F/E/ | %118
 D/C/B,/ FF,/ B,,/D,/F,/ B,3/2 | F,,/A,/G,/ A,/B,/C/ G,,/D/C/ B,/A,/G,/ | %120
 A,,/A,/B,/ A,/G,/F,/ B,,/D,/E,/ F,/G,/_A,/ | G,,/=B,/A,/ B,/C/D/ A,,/E/D/ C/B,/A,/ | %122
 =B,,/=B,/C/ B,/A,/G,/ C,/E,/F,/ G,/A,/B,/ | C3/2 g3/2 c'3/2 _A,3/2 | B,3/2 f3/2 b3/2 G,3/2 | %125
 _A,3/2 G/c/_A/ F/c/A/ D/A/c/ | =B/A/G/ F/B/G/ =E/_B/G/ C/G/B/ | _A/G/F/ E/D/C/ =B,3/2 G,3/2 | %128
 C3/2^C3/2 D3/2- D/=C/B,/ | E/D/C/ B,/A,/G,/ ^F,/A,/G,/ F,/=E,/D,/ | %130
 G,3/2- G,/A,/B,/ A,/C/B,/ A,/G,/F,/ | B,/A,/B,/ C/^F/A/ D/ z/ z/ z3/2 | %132
 z/ G,/F,/ E,/D,/C,/ F, z/ z3/2 | z/ E,/D,/ C,/B,,/A,,/ D,3/2E,3/2- | %134
 E,B,,/ C,D,/ G,3/2- G,/=F,/E,/ | D,3/2E,3/2 F,3/2G,3/2 | %136
 _A,/B,/A,/ G,/F,/E,/ F,/G,/F,/ E,/D,/C,/ | =B,, z/ C, z/ A,, z/ _B,,/B,/A,/ | %138
 G,/F,/E,/ D,/C,/B,,/ F,3/2- F,/A,/C/ | E/D/E/ F,/A,/C/ D/C/D/ F,/A,/B,/ | %140
 C/B,/C/ F,/G,/A,/ B,/F,/D,/ B,,/F,/_A,,/ | G,,/=B,,/D,/ F,/E,/F,/ G,,/B,,/C,/ E,/D,/E,/ | %142
 F,,/_A,,/=B,,/ D,/C,/D,/ F,,/E,,/G,,/ C,/E,/G,/ | C3/2- C/D/E/ D/B,/C/ D/E/F/ | %144
 G,3/2- G,/A,/B,/ A,/F,/G,/ A,/B,/C/ | D,3/2- D,/E,/F,/ =E,/C,/D,/ E,/F,/G,/ | %146
 _A,,3/2- A,,/B,,/C,/ =B,,/G,,/=A,,/ B,,/C,/D,/ | %147
 E,,3/2- E,,/F,,/G,,/ _G,,/D,,/=E,,/ G,,/=G,,/A,,/ | B,,/G,,/A,,/ B,,/C,/D,/ E,/C,/D,/ E,/F,/G,/ | %149
 A,,/F,,/G,,/ A,,/B,,/C,/ D,/B,,/C,/ D,/E,/F,/ | _G,,3/2=G,,3/2 F,,/A,,/B,,/ C,/D,/E,/ | %151
 F,3/2E,3/2 D,3/2C,3/2 | B,,/C/B,/ A,/G,/_G,/ =G,3/2B,3/2 | E,3/2D,3/2 C,3/2B,,3/2 | %154
 A,,/ B,/A,/ G,/F,/=E,/ F,/F,,/G,,/ A,,/B,,/C,/ | D,3/2C,3/2 B,,3/2A,,3/2 | %156
 G,,/ _A/G/ F/E/D/ E/F/E/ D/C/=B,/ | C/D/C/ B,/A,/G,/ A,/B,/A,/ G,/F,/=E,/ | %158
 F,/G,/F,/ E,/D,/C,/ D,/E,/D,/ C,/B,,/A,,/ | B,,/C,/B,,/ A,,/G,,/_G,,/ =G,,/A,,/G,,/ F,,/E,,/D,,/ | %160
 E,, z/ z3/2 z3 | E,3/2 z3/2 z3 | !fermata!E,3/2 z3/2 z/ E,/D,/ C,/B,,/A,,/ | %163
 B,,/F,,/G,,/ A,,/B,,/C,/ D,/B,,/C,/ D,/E,/F,/ | G,/_A,/G,/ F,/E,/D,/ E,/D/C/ B,/=A,/G,/ | %165
 A,/=E,/F,/ G,/A,/B,/ C/A,/B,/ C/D/E/ | F/G/F/ E/D/C/ D/c/B/ _A/G/F/ | %167
 G/_A/G/ F/E/D/ E/F/E/ D/C/=B,/ | C/D/C/ B,/A,/G,/ A,/A,,/B,,/ C,/D,/E,/ | %169
 F,,3/2- F,,E/ _DC/ D/F/B,/ | A,G,/ A,/C/F,/ B,/_D/_A,/ _G,/B,/F,/ | %171
 E,3/2- E,/B,,/_G,,/ E,,/G,,/B,,/ E,/F,/_G,/- | G,/F,/=G,/ A,/B,/C/ D/E/F/ G/F/E/ | %173
 D/C/B,/ FF,/ B,,/D,/F,/ !fermata!B,3/2 |] %174
V:4
 x6 | x6 | x6 | x6 | x6 | x6 | x6 | x6 | x6 | x6 | x6 | x6 | x6 | x6 | x9/2[K:bass] x3/2 | %15
 x3/2[K:treble] x3[K:bass] x3/2 | x3/2[K:treble] x9/2 | x6 | x6 | x6 | x6 | x6 | x6 | x6 | x6 | %25
 x6 | x6 | x6 | x6 | x6 | x6 | x6 | x6 | x6 | x6 | x6 | x6 | x6 | x6 | x6 | x6 | x6 | x6 | x6 | %44
 x6 | x6 | x6 | x6 | x6 | x6 | x6 | x6 | x6 | x6 | x6 | x6 | x6 | x6 | x6 | x6 | x6 | x6 | x6 | %63
 x6 | x6 | z3 d/B/F/-F z/ | x6 | x6 | x6 | x6 | x9/2[K:bass] x3/2 | %71
 x3/2[K:treble] x3[K:bass] x3/2 | x3/2[K:treble] x9/2 | x6 | x6 | x6 | x6 | x6 | x6 | x6 | x6 | %81
 x6 | x6 | x6 | x6 | x6 | x6 | x6 | x6 | x6 | x6 | x6 | x6 | x6 | x6 | x6 | x6 | x6 | x6 | x6 | %100
 x6 | x6 | x6 | x6 | x6 | z/ f/e/- e/c/d/- d/d/c/- c/=A/B/ | x6 | x6 | x6 | x6 | x6 | x6 | x6 | %113
 x6 | x6 | x6 | x6 | x6 | x6 | x6 | z3 d/B/F/-F z/ | x6 | x6 | x6 | x6 | x6 | x6 | x6 | x6 | x6 | %130
 x6 | x6 | x6 | x6 | x6 | x6 | x6 | x6 | x6 | x6 | x6 | x6 | x6 | x6 | x6 | x6 | x6 | x6 | x6 | %149
 x6 | x6 | x6 | x6 | x6 | x6 | x6 | x6 | x6 | x6 | x6 | z/ f/e/- e/c/d/- d/d/c/- c/=A/B/ | x6 | %162
 x6 | x6 | x6 | x6 | x6 | x6 | x6 | x6 | x6 | x6 | x6 | x6 |] %174
V:5
 x6 | x6 | x6 | x6 | x6 | x6 | x6 | x6 | x6 | x6 | x6 | x6 | x6 | x6 | x9/2[K:bass] x3/2 | %15
 x3/2[K:treble] x3[K:bass] x3/2 | x3/2[K:treble] x9/2 | x6 | x6 | x6 | x6 | x6 | x6 | x6 | x6 | %25
 x6 | x6 | x6 | x6 | x6 | x6 | x6 | x6 | x6 | x6 | x6 | x6 | x6 | x6 | x6 | x6 | x6 | x6 | x6 | %44
 x6 | x6 | x6 | x6 | x6 | x6 | x6 | x6 | x6 | x6 | x6 | x6 | x6 | x6 | x6 | x6 | x6 | x6 | x6 | %63
 x6 | x6 | z3 z/ B B z/ | x6 | x6 | x6 | x6 | x9/2[K:bass] x3/2 | x3/2[K:treble] x3[K:bass] x3/2 | %72
 x3/2[K:treble] x9/2 | x6 | x6 | x6 | x6 | x6 | x6 | x6 | x6 | x6 | x6 | x6 | x6 | x6 | x6 | x6 | %88
 x6 | x6 | x6 | x6 | x6 | x6 | x6 | x6 | x6 | x6 | x6 | x6 | x6 | x6 | x6 | x6 | x6 | x6 | x6 | %107
 x6 | x6 | x6 | x6 | x6 | x6 | x6 | x6 | x6 | x6 | x6 | x6 | x6 | z3 z/ B B z/ | x6 | x6 | x6 | %124
 x6 | x6 | x6 | x6 | x6 | x6 | x6 | x6 | x6 | x6 | x6 | x6 | x6 | x6 | x6 | x6 | x6 | x6 | x6 | %143
 x6 | x6 | x6 | x6 | x6 | x6 | x6 | x6 | x6 | x6 | x6 | x6 | x6 | x6 | x6 | x6 | x6 | x6 | x6 | %162
 x6 | x6 | x6 | x6 | x6 | x6 | x6 | x6 | x6 | x6 | x6 | x6 |] %174
V:6
 x6 | x6 | x6 | x6 | x6 | x6 | x6 | x6 | x6 | x6 | x6 | x6 | x3/2[K:treble] x3[K:bass] x3/2 | %13
 x3/2[K:treble] x3[K:bass] x3/2 | x6 | x6 | x6 | x6 | x6 | x6 | x6 | x6 | x6 | x6 | x6 | x6 | x6 | %27
 x6 | x6 | x6 | x6 | x6 | x6 | x6 | x6 | x6 | x6 | x6 | x6 | x6 | x6 | x6 | x6 | x6 | x6 | x6 | %46
 x6 | x6 | x6 | x6 | x6 | x6 | x6 | x6 | x6 | x6 | x6 | x6 | x6 | x6 | x6 | x6 | x6 | x6 | x6 | %65
 x6 | x6 | x6 | x3/2[K:treble] x3[K:bass] x3/2 | x3/2[K:treble] x3[K:bass] x3/2 | %70
 x3/2[K:treble] x9/2 | x6 | x3[K:bass] x3 | x6 | x6 | x6 | x6 | x6 | x6 | %79
 G,/^F,/G,/ A,/B,/C/- C/B,/A,/ B, z/ | x6 | x6 | x6 | x6 | x6 | x6 | x6 | x6 | x6 | x6 | x6 | x6 | %92
 x6 | x6 | x6 | x6 | x6 | x6 | x6 | x6 | x6 | x6 | x6 | x6 | x6 | x6 | x6 | x6 | x6 | x6 | x6 | %111
[K:treble] x6 | x6 |[K:bass] x6 | x6 | x6 | x6 | x6 | x6 | x6 | x6 | x6 | x6 | x6 | x6 | x6 | x6 | %127
 x6 | x6 | x6 | x6 | x6 | x6 | x6 | G,/^F,/G,/ A,/B,/C/- C/B,/A,/ B, z/ | x6 | x6 | x6 | x6 | x6 | %140
 x6 | x6 | x6 | x6 | x6 | x6 | x6 | x6 | x6 | x6 | x6 | x6 | x6 | x6 | x6 | x6 | x6 | x6 | x6 | %159
 x6 | x6 | x6 | x6 | x6 | x6 | x6 | x6 | x6 | x6 | x6 | x6 | x6 | x6 | x6 |] %174

